Font-Source/Egyptian2/svg-my/137F0.svg

<?xml version="1.0" encoding="UTF-8" standalone="no"?>
<svg
   width="20.560665"
   height="17.972734"
   version="1.1"
   id="svg1"
   sodipodi:docname="137F0.svg"
   inkscape:version="1.4.2 (f4327f4, 2025-05-13)"
   xmlns:inkscape="http://www.inkscape.org/namespaces/inkscape"
   xmlns:sodipodi="http://sodipodi.sourceforge.net/DTD/sodipodi-0.dtd"
   xmlns="http://www.w3.org/2000/svg"
   xmlns:svg="http://www.w3.org/2000/svg">
  <defs
     id="defs1" />
  <sodipodi:namedview
     id="namedview1"
     pagecolor="#ffffff"
     bordercolor="#666666"
     borderopacity="1.0"
     inkscape:showpageshadow="2"
     inkscape:pageopacity="0.0"
     inkscape:pagecheckerboard="0"
     inkscape:deskcolor="#d1d1d1"
     inkscape:zoom="45.254834"
     inkscape:cx="6.7727571"
     inkscape:cy="4.8503106"
     inkscape:window-width="1680"
     inkscape:window-height="998"
     inkscape:window-x="-8"
     inkscape:window-y="-8"
     inkscape:window-maximized="1"
     inkscape:current-layer="svg1"
     showguides="true">
    <sodipodi:guide
       position="19.414481,8.3743985"
       orientation="1,0"
       id="guide1"
       inkscape:locked="false" />
  </sodipodi:namedview>
  <path
     style="fill:#000000;stroke:none;stroke-width:0.945067"
     d="M 3.390625,0 C 1.6251738,0 0.7421875,0.81480048 0.7421875,2.4453125 H 0.01757813 L 0.7421875,3.1210938 V 3.4414062 H 0.01757813 L 0.7421875,4.1660156 V 4.4863281 H 0.01757813 L 0.7421875,5.1777344 V 5.4980469 H 0 L 0.7421875,6.1738281 V 6.4765625 L 0.01757813,6.4941406 0.7421875,7.1523438 V 7.4726562 H 0.03320312 L 0.58984375,8.109375 c 0.006149,0.2445569 0.0335228,0.4072921 0.0820313,0.4921875 H 0.01757813 L 0.7421875,9.2773438 V 9.5976562 H 0.01757813 L 0.7421875,10.324219 v 0.318359 H 0.01757813 l 0.72460937,0.69336 v 0.318359 H 0 l 0.7421875,0.675781 v 0.302734 H 0.01757813 l 0.72460937,0.675782 v 0.320312 H 0.03320312 L 0.7421875,14.4375 v 2.53125 H 0 v 1.003906 H 19.414062 V 16.96875 H 18.689453 V 14.4375 l 0.708985,-0.808594 h -0.708985 v -0.320312 l 0.724609,-0.675782 h -0.724609 v -0.302734 l 0.742188,-0.675781 h -0.742188 v -0.318359 l 0.724609,-0.69336 H 18.689453 V 10.324219 L 19.414062,9.5976562 H 18.689453 V 9.2773438 L 19.414062,8.6015625 H 18.689453 V 8.2832031 L 19.398438,7.4726562 H 18.689453 V 7.1523438 L 19.414062,6.4941406 18.689453,6.4765625 V 6.1738281 L 19.431641,5.4980469 H 18.689453 V 5.1777344 L 19.414062,4.4863281 H 18.689453 V 4.1660156 L 19.414062,3.4414062 H 18.689453 V 3.1210938 L 19.414062,2.4453125 H 18.689453 C 18.689453,0.81480049 17.806467,0 16.041016,0 v 0.41992188 c 1.34939,0 2.023437,0.68671492 2.023437,2.05859372 v 5.1289063 h -0.0332 c -0.303613,0.1236948 -0.544691,0.3199666 -0.724609,0.5898437 -0.584736,0.2024087 -1.085892,0.3046874 -1.501953,0.3046875 -0.416062,0 -0.910883,0.038473 -1.484376,0.1171875 C 13.533171,8.1131196 12.801647,7.5009242 12.126953,6.78125 11.935789,6.4439022 11.413209,6.2734375 10.558594,6.2734375 V 6.0039062 c 0.19469,-0.080395 0.416025,-0.2607928 0.55664,-0.5078124 C 11.548182,4.7355342 11.613807,4.1738104 11.394531,3.6171875 11.188862,3.0951051 10.941236,2.604052 9.8515625,2.5195312 V 0.87890625 c 0,-0.23637762 0.051042,-0.35546875 0.1523435,-0.35546875 0.1013,0 0.152344,0.11909113 0.152344,0.35546875 h 0.353516 C 10.50973,0.29358975 10.313886,0 9.9199219,0 9.5259585,0 9.3281249,0.29358975 9.328125,0.87890625 V 1.3515625 H 9.0234375 c -0.1125623,0 -0.1679689,0.072421 -0.1679687,0.21875 0,0.1575855 0.055407,0.2426506 0.1679687,0.2539063 H 9.328125 V 2.5 l 0.00195,0.00195 V 2.5039 2.50585 2.5078 C 9.290133,2.50896 9.250626,2.51167 9.2089813,2.51366 8.7367037,2.5361588 8.3952937,2.8347126 8.1816406,3.4082031 8.102926,3.7455495 7.9643637,4.0528617 7.7675781,4.3339844 c -0.1967864,0.2811234 -0.1434566,0.421875 0.1601563,0.421875 -0.067469,0.1012041 -0.061137,0.1567243 0.017578,0.1679687 -0.067469,0.056225 -0.073803,0.1051744 -0.017578,0.1445313 0.056225,0.039357 0.068209,0.1326918 0.066406,0.2792968 -0.00184,0.149747 0.2005671,0.2276403 0.4394532,0.2363282 h 0.3378906 c 0.1349386,0.112449 0.2075049,0.3408615 0.21875,0.6894531 -0.9895519,0 -1.5847009,0.1918913 -1.7871094,0.5742187 C 6.4384711,7.3649214 5.628051,7.9620235 4.7734375,8.6367188 4.0537635,8.558004 3.4800407,8.4961517 3.0527344,8.4511719 2.6254272,8.4061924 2.2606436,8.3058664 1.9570312,8.1484375 1.7987784,7.9250224 1.6005502,7.7541991 1.3652344,7.6386719 V 2.4785156 c 0,-1.3718788 0.6760013,-2.05859372 2.0253906,-2.05859372 z m 6.0800781,2.796875 c 0.3073839,-0.011384 1.2216229,0.034003 1.6191409,0.9316406 0.1743,0.3935718 0.14435,0.843587 -0.0918,1.3496094 -0.236141,0.5060194 -0.46017,0.6789138 -0.673825,0.5214844 C 10.110563,5.4421814 10.001953,5.245909 10.001953,5.0097656 10.215607,4.6724183 10.349793,4.4186743 10.400391,4.25 10.476706,3.9956168 10.46344,3.5966178 10.087891,3.5429688 9.9304617,3.5204789 9.76633,3.5652856 9.5976562,3.6777344 9.3390275,3.5427959 9.0190455,3.4190896 8.6367188,3.3066406 8.7246263,2.9022603 9.1528633,2.8086464 9.4707031,2.796875 Z M 8.3828125,3.5585938 c 0.393571,0.067469 0.8105001,0.21994 1.2265625,0.4335937 0.113719,-0.119154 0.2108325,-0.1821911 0.3398438,-0.1914063 0.1000432,-0.00715 0.2163012,0.1258527 0.1464842,0.3652344 -0.03936,0.1349385 -0.1993462,0.3823501 -0.4804686,0.7421875 0.08996,0.5397555 0.2925643,0.8660667 0.6074216,0.9785157 l -0.002,0.6692516 c 0.435093,-0.00296 0.840724,0.038284 1.216892,0.1237171 0.140762,0.021194 -0.0086,0.5179956 -0.10161,0.7597656 C 11.05779,8.1626387 10.86509,9.6742175 10.710938,11.25 L 9.0742188,11.740234 C 8.8268305,10.773171 8.6305587,10.024605 8.484375,9.4960938 8.3381908,8.9675835 8.1823456,8.2531085 8.0136719,7.3535156 c -0.076703,-0.409083 -0.1466616,-0.6328727 0,-0.6738281 C 8.4324118,6.5627539 8.7959174,6.5161868 9.3140983,6.5393976 9.3380729,6.0957162 9.2427225,5.7080673 9.0234379,5.3632812 8.871379,5.3901283 8.7103358,5.379379 8.4179688,5.390625 8.2268044,5.40187 8.1415728,5.3360528 8.1640625,5.2460938 c 0.02249,-0.08996 0.011777,-0.1644793 -0.033203,-0.2207032 0.1897584,0.00632 0.303078,-0.00413 0.3398437,-0.035156 9.032e-4,-8.91e-4 0.00508,-0.00494 0.00586,-0.00586 0.00134,-0.0019 0.005,-0.00776 0.00586,-0.00977 6.259e-4,-0.00207 0.0018,-0.00757 0.00195,-0.00977 C 8.4835891,4.9435494 8.4613669,4.9145268 8.4179688,4.8828125 8.2717839,4.775986 8.1695052,4.744083 8.1132812,4.7890625 8.1470158,4.6428786 8.0617833,4.5639798 7.859375,4.5527344 8.0955177,4.181652 8.2703625,3.8509609 8.3828125,3.5585938 Z M 8.5996094,3.734375 C 8.5110554,3.735785 8.4112775,3.751185 8.2988281,3.779297 V 3.9296875 C 8.523727,3.8622182 8.7073319,3.8578388 8.8535156,3.9140625 8.9996997,3.9702872 9.1979249,4.00876 9.4453125,4.03125 L 9.3613281,3.9628906 C 9.1364294,3.8841755 8.9593948,3.8201332 8.8300781,3.7695312 8.7654201,3.7442286 8.6881631,3.7329699 8.5996094,3.734375 Z m -0.00977,0.2246094 c -0.1321283,-0.0028 -0.2228352,0.045044 -0.2734376,0.140625 l -0.1523437,0.099609 v 0.068359 l 0.1347656,0.017578 C 8.4787481,4.4088509 8.7539177,4.38547 9.125,4.2167969 H 9.4453125 V 4.1152344 H 9.109375 C 8.8957219,4.0140304 8.721971,3.9617956 8.5898438,3.9589844 Z M 8.5175781,4.0644531 C 8.4725981,4.1319221 8.4789322,4.1937761 8.5351562,4.25 8.4676873,4.238756 8.405834,4.2217078 8.3496094,4.1992188 c 0.02249,-0.044979 0.078008,-0.089785 0.1679687,-0.1347657 z m 0.2207031,0 0.2695313,0.1015625 C 8.9066084,4.2109946 8.8169956,4.238755 8.7382812,4.25 c 0.067469,-0.056224 0.067469,-0.1180766 0,-0.1855469 z M 7.4101562,7.8554688 C 7.521437,7.851917 7.6115356,7.9613104 7.6816406,8.1816406 7.8938677,8.8486381 8.066331,9.4497398 8.6855469,11.875 7.561056,10.896694 6.3825319,10.34883 5.1445312,10.289062 c -0.3931139,-0.01897 -0.6451266,0.202605 -0.7519531,0.607422 -0.1068266,0.404816 -0.09197,1.921429 0.042969,4.552735 v 0.01953 c 0,0.213652 -0.164369,0.363163 -0.4960938,0.453125 -0.3317251,0.08996 -0.7751713,0.237045 -1.3261719,0.439453 H 2.34375 c -0.2361434,0 -0.2468568,0.202605 -0.033203,0.607422 H 1.3652344 V 8.6054688 C 1.5256453,8.5485396 1.6123832,8.5140392 1.6230469,8.5039062 H 1.625 C 2.4117032,9.2206518 3.4755415,9.5585626 4.8222656,9.5136719 6.1379198,8.782754 6.9162005,8.2837871 7.1523438,8.0195312 7.2482768,7.9121774 7.3340168,7.8578989 7.4101562,7.8554688 Z M 11.722656,7.984375 c 0.06922,-0.00455 0.162807,0.044924 0.279297,0.1464844 0.219275,0.1911644 0.906227,0.6967024 2.064453,1.5175781 1.113246,-0.022492 2.305498,-0.3892271 3.576172,-1.0976563 l 0.421875,0.1464844 V 16.96875 h -6.679687 l 0.457031,-2.613281 c 0,-0.629714 -0.270792,-0.885412 -0.810547,-0.761719 0.517267,-0.685939 0.545031,-1.47736 0.08398,-2.376953 0.221704,-1.8340994 0.362123,-2.6617408 0.480469,-3.0957032 0.02372,-0.086972 0.06588,-0.1327032 0.126953,-0.1367188 z m -6.5078122,2.705078 c 0.032101,-3.17e-4 0.064026,0.0022 0.097656,0.0059 1.2041536,0.126198 2.2995105,0.678949 3.2890625,1.634766 -0.4048169,0.314858 -0.7696007,0.611454 -1.0957031,0.892578 l -1.517578,-1.515666 c -0.2811228,-0.168674 -0.4111616,-0.09611 -0.3886718,0.21875 0.033735,0.483531 -0.034451,1.093537 -0.203125,1.830078 -0.1686735,0.736541 -0.2519531,1.476585 -0.2519532,2.21875 0.1236943,0.416061 0.1066462,0.663474 -0.050781,0.742188 H 2.4960938 v -0.119141 c 0.337347,-0.01124 0.591092,-0.05386 0.7597656,-0.126953 0.1686737,-0.07309 0.5996904,-0.198986 1.296875,-0.378906 0.1124488,-0.02249 0.1699218,-0.203668 0.1699218,-0.541016 -0.056225,-2.282717 -0.049099,-3.785543 0.050781,-4.503906 0.035436,-0.254854 0.2166954,-0.35521 0.4414066,-0.357422 z m 5.7500002,1.017578 c 0.281122,0.820878 0.183224,1.463024 -0.289063,1.929688 -0.472286,0.466662 -1.0696257,0.711883 -1.7949216,0.734375 -0.7252966,0.02249 -1.4142012,0.434034 -2.0664063,1.232422 -0.016692,0.07678 -0.011668,0.128426 0.00977,0.15039 0.054284,0.0442 0.2117188,-0.0573 0.4707031,-0.304687 0.3767048,-0.359837 0.9185243,-0.618198 1.6269531,-0.78125 0.7084295,-0.16305 1.1840157,-0.324994 1.4257807,-0.482422 0.241766,-0.157429 0.502017,-0.28711 0.785156,-0.287109 0.23854,0 0.342806,0.187153 0.320313,0.457031 l -0.337891,2.361328 H 10.1875 v -0.101563 l 0.742188,-0.08594 0.169921,-1.517578 c 0,-0.584736 -0.281503,-0.687015 -0.84375,-0.304688 -1.3606317,0.922081 -2.4121329,1.55961 -3.1542965,1.908203 -0.4947759,0.05622 -0.8508,-0.0183 -1.0644531,-0.220703 -0.2136539,-0.202409 -0.2180337,-0.5331 -0.015625,-0.99414 0.5622453,-0.888349 1.3300497,-1.713627 2.3027344,-2.472657 0.9726847,-0.759032 1.8534812,-1.16448 2.6406252,-1.220703 z M 5.9882812,12.246094 7.21875,13.476562 c -0.506021,0.449799 -0.9453248,0.938286 -1.3164062,1.466797 -0.2349491,0.348634 -0.3705209,0.637246 -0.40625,0.863282 6.152e-4,-0.673433 0.069954,-1.269355 0.2050781,-1.789063 0.1461837,-0.562245 0.2421297,-1.153013 0.2871093,-1.771484 z m 4.7558598,2.496094 -0.117188,1.570312 c -0.449795,0 -0.6757811,0.07696 -0.6757811,0.234375 V 16.96875 H 7.2265625 c 0.8514606,-0.3554 2.023211,-1.097484 3.5175785,-2.226562 z m -5.1445316,1.589843 c 0.1445048,0.289312 0.4230351,0.495101 0.6796875,0.636719 H 5.4648438 C 5.614725,16.852176 5.659367,16.639746 5.5996094,16.332031 Z"
     id="path1"
     sodipodi:nodetypes="cccccccccccccccccccccccccccccccccccccccccccccccccccccccccccccccccccccccccccccccccscccsccccsscssccsscsscccccccccsccsscccccsccsccsccsccsccscccccccccccssscccscccccsccccccsccscsccccccccssccccccccssccscsscsccccccssscccccccccsssscccccsccccsccsssssccssssccccccccccscsccccscccsccccccc" />
</svg>

<?xml version="1.0" encoding="UTF-8" standalone="no"?>
<svg
   width="20.560665"
   height="17.972734"
   version="1.1"
   id="svg1"
   sodipodi:docname="137F0.svg"
   inkscape:version="1.4.2 (f4327f4, 2025-05-13)"
   xmlns:inkscape="http://www.inkscape.org/namespaces/inkscape"
   xmlns:sodipodi="http://sodipodi.sourceforge.net/DTD/sodipodi-0.dtd"
   xmlns="http://www.w3.org/2000/svg"
   xmlns:svg="http://www.w3.org/2000/svg">
  <defs
     id="defs1" />
  <sodipodi:namedview
     id="namedview1"
     pagecolor="#ffffff"
     bordercolor="#666666"
     borderopacity="1.0"
     inkscape:showpageshadow="2"
     inkscape:pageopacity="0.0"
     inkscape:pagecheckerboard="0"
     inkscape:deskcolor="#d1d1d1"
     inkscape:zoom="32"
     inkscape:cx="8.359375"
     inkscape:cy="11.953125"
     inkscape:window-width="1680"
     inkscape:window-height="998"
     inkscape:window-x="-8"
     inkscape:window-y="-8"
     inkscape:window-maximized="1"
     inkscape:current-layer="svg1"
     showguides="true">
    <sodipodi:guide
       position="19.414481,8.3743985"
       orientation="1,0"
       id="guide1"
       inkscape:locked="false" />
  </sodipodi:namedview>
  <path
     id="path1"
     style="fill:#000000;stroke:none;stroke-width:0.945067"
     d="M 3.390625 0 C 1.6251738 0 0.7421875 0.81480048 0.7421875 2.4453125 L 0.017578125 2.4453125 L 0.7421875 3.1210938 L 0.7421875 3.4414062 L 0.017578125 3.4414062 L 0.7421875 4.1660156 L 0.7421875 4.4863281 L 0.017578125 4.4863281 L 0.7421875 5.1777344 L 0.7421875 5.4980469 L 0 5.4980469 L 0.7421875 6.1738281 L 0.7421875 6.4765625 L 0.017578125 6.4941406 L 0.7421875 7.1523438 L 0.7421875 7.4726562 L 0.033203125 7.4726562 L 0.58984375 8.109375 C 0.59599275 8.3539319 0.6233666 8.5166671 0.671875 8.6015625 L 0.017578125 8.6015625 L 0.7421875 9.2773438 L 0.7421875 9.5976562 L 0.017578125 9.5976562 L 0.7421875 10.324219 L 0.7421875 10.642578 L 0.017578125 10.642578 L 0.7421875 11.335938 L 0.7421875 11.654297 L 0 11.654297 L 0.7421875 12.330078 L 0.7421875 12.632812 L 0.017578125 12.632812 L 0.7421875 13.308594 L 0.7421875 13.628906 L 0.033203125 13.628906 L 0.7421875 14.4375 L 0.7421875 16.96875 L 0 16.96875 L 0 17.972656 L 19.414062 17.972656 L 19.414062 16.96875 L 18.689453 16.96875 L 18.689453 14.4375 L 19.398438 13.628906 L 18.689453 13.628906 L 18.689453 13.308594 L 19.414062 12.632812 L 18.689453 12.632812 L 18.689453 12.330078 L 19.431641 11.654297 L 18.689453 11.654297 L 18.689453 11.335938 L 19.414062 10.642578 L 18.689453 10.642578 L 18.689453 10.324219 L 19.414062 9.5976562 L 18.689453 9.5976562 L 18.689453 9.2773438 L 19.414062 8.6015625 L 18.689453 8.6015625 L 18.689453 8.2832031 L 19.398438 7.4726562 L 18.689453 7.4726562 L 18.689453 7.1523438 L 19.414062 6.4941406 L 18.689453 6.4765625 L 18.689453 6.1738281 L 19.431641 5.4980469 L 18.689453 5.4980469 L 18.689453 5.1777344 L 19.414062 4.4863281 L 18.689453 4.4863281 L 18.689453 4.1660156 L 19.414062 3.4414062 L 18.689453 3.4414062 L 18.689453 3.1210938 L 19.414062 2.4453125 L 18.689453 2.4453125 C 18.689453 0.81480049 17.806467 0 16.041016 0 L 16.041016 0.41992188 C 17.390406 0.41992188 18.064453 1.1066368 18.064453 2.4785156 L 18.064453 7.6074219 L 18.03125 7.6074219 C 17.727637 7.7311167 17.486559 7.9273885 17.306641 8.1972656 C 16.721905 8.3996743 16.22075 8.501953 15.804688 8.5019531 C 15.388627 8.5019531 14.893805 8.5404262 14.320312 8.6191406 C 13.533171 8.1131196 12.801647 7.5009242 12.126953 6.78125 C 11.935789 6.4439022 11.413209 6.2734375 10.558594 6.2734375 L 10.558594 6.0039062 C 10.753284 5.9235108 10.974619 5.7431134 11.115234 5.4960938 C 11.548182 4.7355342 11.613807 4.1738104 11.394531 3.6171875 C 11.188862 3.0951051 10.941236 2.6040519 9.8515625 2.5195312 L 9.8515625 0.87890625 C 9.8515625 0.64252863 9.9026044 0.5234375 10.003906 0.5234375 C 10.105206 0.5234375 10.15625 0.64252863 10.15625 0.87890625 L 10.509766 0.87890625 C 10.50973 0.29358975 10.313886 1.4802974e-16 9.9199219 0 C 9.5259585 0 9.3281249 0.29358975 9.328125 0.87890625 L 9.328125 1.3515625 L 9.0234375 1.3515625 C 8.9108752 1.3515625 8.8554687 1.4239832 8.8554688 1.5703125 C 8.8554688 1.727898 8.9108756 1.8129631 9.0234375 1.8242188 L 9.328125 1.8242188 L 9.328125 2.5 L 9.3300781 2.5019531 L 9.3300781 2.5039062 L 9.3300781 2.5058594 L 9.3300781 2.5078125 C 9.2901361 2.5089725 9.2506295 2.5116819 9.2089844 2.5136719 C 8.7367037 2.5361588 8.3952937 2.8347126 8.1816406 3.4082031 C 8.102926 3.7455495 7.9643637 4.0528617 7.7675781 4.3339844 C 7.5707917 4.6151078 7.6241215 4.7558594 7.9277344 4.7558594 C 7.8602651 4.8570635 7.8665977 4.9125837 7.9453125 4.9238281 C 7.8778433 4.9800528 7.8715097 5.0290025 7.9277344 5.0683594 C 7.9839594 5.1077164 7.9959436 5.2010512 7.9941406 5.3476562 C 7.9923006 5.4974032 8.1947077 5.5752965 8.4335938 5.5839844 L 8.7714844 5.5839844 C 8.906423 5.6964334 8.9789893 5.9248459 8.9902344 6.2734375 C 8.0006825 6.2734375 7.4055335 6.4653288 7.203125 6.8476562 C 6.4384711 7.3649214 5.628051 7.9620235 4.7734375 8.6367188 C 4.0537635 8.5580041 3.4800407 8.4961517 3.0527344 8.4511719 C 2.6254272 8.4061924 2.2606435 8.3058664 1.9570312 8.1484375 C 1.7987784 7.9250224 1.6005502 7.7541991 1.3652344 7.6386719 L 1.3652344 2.4785156 C 1.3652344 1.1066368 2.0412357 0.41992188 3.390625 0.41992188 L 3.390625 0 z M 9.4707031 2.796875 C 9.778087 2.785491 10.692326 2.8308775 11.089844 3.7285156 C 11.264144 4.1220874 11.234194 4.5721026 10.998047 5.078125 C 10.761903 5.5841444 10.537874 5.7570388 10.324219 5.5996094 C 10.110563 5.4421814 10.001953 5.245909 10.001953 5.0097656 C 10.215607 4.6724183 10.349793 4.4186743 10.400391 4.25 C 10.476706 3.9956168 10.46344 3.5966178 10.087891 3.5429688 C 9.9304621 3.520479 9.7663299 3.5652856 9.5976562 3.6777344 C 9.3390274 3.5427959 9.0190456 3.4190896 8.6367188 3.3066406 C 8.7246264 2.9022603 9.1528633 2.8086464 9.4707031 2.796875 z M 8.3828125 3.5585938 C 8.7763835 3.6260628 9.1933126 3.7785338 9.609375 3.9921875 C 9.723094 3.8730335 9.8202075 3.8099964 9.9492188 3.8007812 C 10.049262 3.7936312 10.16552 3.9266339 10.095703 4.1660156 C 10.056343 4.3009541 9.8963568 4.5483657 9.6152344 4.9082031 C 9.7051944 5.4479586 9.9077984 5.7742698 10.222656 5.8867188 L 10.222656 6.2734375 C 10.222656 6.4083771 10.064857 6.4765625 9.75 6.4765625 C 9.4688766 6.4765625 9.3261719 6.4083762 9.3261719 6.2734375 C 9.3261719 5.8686213 9.2258459 5.5656894 9.0234375 5.3632812 C 8.871379 5.3901283 8.7103359 5.379379 8.4179688 5.390625 C 8.2268044 5.40187 8.1415728 5.3360528 8.1640625 5.2460938 C 8.1865525 5.1561338 8.1758394 5.0816145 8.1308594 5.0253906 C 8.3206178 5.0317106 8.4339374 5.0212614 8.4707031 4.9902344 C 8.4716063 4.9893434 8.4757825 4.985295 8.4765625 4.984375 C 8.4779025 4.982475 8.4815619 4.9766194 8.4824219 4.9746094 C 8.4830478 4.9725394 8.484225 4.9670438 8.484375 4.9648438 C 8.4835891 4.9435495 8.4613669 4.9145268 8.4179688 4.8828125 C 8.2717839 4.775986 8.1695051 4.744083 8.1132812 4.7890625 C 8.1470157 4.6428786 8.0617833 4.5639798 7.859375 4.5527344 C 8.0955177 4.181652 8.2703625 3.8509609 8.3828125 3.5585938 z M 8.5996094 3.734375 C 8.5110554 3.735785 8.4112775 3.7511849 8.2988281 3.7792969 L 8.2988281 3.9296875 C 8.523727 3.8622182 8.7073319 3.8578388 8.8535156 3.9140625 C 8.9996997 3.9702872 9.1979249 4.00876 9.4453125 4.03125 L 9.3613281 3.9628906 C 9.1364294 3.8841755 8.9593948 3.8201331 8.8300781 3.7695312 C 8.7654201 3.7442285 8.6881631 3.7329699 8.5996094 3.734375 z M 8.5898438 3.9589844 C 8.4577155 3.9561844 8.3670086 4.0040281 8.3164062 4.0996094 L 8.1640625 4.1992188 L 8.1640625 4.2675781 L 8.2988281 4.2851562 C 8.4787481 4.4088509 8.7539177 4.38547 9.125 4.2167969 L 9.4453125 4.2167969 L 9.4453125 4.1152344 L 9.109375 4.1152344 C 8.8957219 4.0140304 8.7219711 3.9617956 8.5898438 3.9589844 z M 8.5175781 4.0644531 C 8.4725981 4.1319221 8.4789322 4.1937761 8.5351562 4.25 C 8.4676872 4.238756 8.405834 4.2217078 8.3496094 4.1992188 C 8.3720994 4.1542398 8.4276179 4.1094334 8.5175781 4.0644531 z M 8.7382812 4.0644531 L 9.0078125 4.1660156 C 8.9066084 4.2109946 8.8169955 4.238755 8.7382812 4.25 C 8.8057503 4.193776 8.8057503 4.1319234 8.7382812 4.0644531 z M 8.921875 6.5449219 C 9.1917528 6.7248409 9.4625439 6.8144531 9.7324219 6.8144531 C 10.013544 6.8144531 10.282382 6.7248397 10.541016 6.5449219 L 11.4375 6.6796875 C 11.57831 6.7008815 11.428858 7.1976831 11.335938 7.4394531 C 11.05779 8.1626387 10.865091 9.6742175 10.710938 11.25 L 9.0742188 11.740234 C 8.8268306 10.773171 8.6305587 10.024605 8.484375 9.4960938 C 8.3381908 8.9675836 8.1823456 8.2531085 8.0136719 7.3535156 C 7.9369689 6.9444326 7.8630416 6.7019917 8.0136719 6.6796875 L 8.921875 6.5449219 z M 7.4101562 7.8554688 C 7.521437 7.851917 7.6115356 7.9613104 7.6816406 8.1816406 C 7.8938677 8.8486381 8.066331 9.4497398 8.6855469 11.875 C 7.561056 10.896694 6.3825318 10.348829 5.1445312 10.289062 C 4.7514173 10.270088 4.4994046 10.491667 4.3925781 10.896484 C 4.2857515 11.3013 4.3006084 12.817913 4.4355469 15.449219 L 4.4355469 15.46875 C 4.4355469 15.682402 4.2711779 15.831913 3.9394531 15.921875 C 3.607728 16.011835 3.1642818 16.15892 2.6132812 16.361328 L 2.34375 16.361328 C 2.1076066 16.361328 2.0968932 16.563933 2.3105469 16.96875 L 1.3652344 16.96875 L 1.3652344 8.6054688 C 1.5256453 8.5485397 1.6123832 8.5140392 1.6230469 8.5039062 L 1.625 8.5039062 C 2.4117032 9.2206517 3.4755415 9.5585626 4.8222656 9.5136719 C 6.1379198 8.782754 6.9162005 8.2837871 7.1523438 8.0195312 C 7.2482769 7.9121773 7.3340168 7.8578989 7.4101562 7.8554688 z M 11.722656 7.984375 C 11.791878 7.979824 11.885463 8.0292991 12.001953 8.1308594 C 12.221228 8.3220238 12.90818 8.8275618 14.066406 9.6484375 C 15.179652 9.6259455 16.371904 9.2592103 17.642578 8.5507812 L 18.064453 8.6972656 L 18.064453 16.96875 L 11.384766 16.96875 L 11.841797 14.355469 C 11.841797 13.725755 11.571005 13.470057 11.03125 13.59375 C 11.548517 12.907811 11.576281 12.11639 11.115234 11.216797 C 11.336938 9.3826977 11.477357 8.5550563 11.595703 8.1210938 C 11.619422 8.0341213 11.661578 7.9883906 11.722656 7.984375 z M 5.2148438 10.689453 C 5.2469447 10.689136 5.27887 10.691612 5.3125 10.695312 C 6.5166536 10.821509 7.6120105 11.374261 8.6015625 12.330078 C 8.1967456 12.644936 7.8319618 12.941532 7.5058594 13.222656 L 5.9882812 11.707031 C 5.7071584 11.538357 5.5771196 11.610926 5.5996094 11.925781 C 5.6333444 12.409312 5.5651582 13.019318 5.3964844 13.755859 C 5.2278109 14.4924 5.1445312 15.232444 5.1445312 15.974609 C 5.2682255 16.39067 5.2511774 16.638083 5.09375 16.716797 L 2.4960938 16.716797 L 2.4960938 16.597656 C 2.8334409 16.586416 3.0871858 16.543796 3.2558594 16.470703 C 3.4245331 16.397613 3.8555498 16.271717 4.5527344 16.091797 C 4.6651832 16.069307 4.7226562 15.888129 4.7226562 15.550781 C 4.6664312 13.268064 4.6735575 11.765238 4.7734375 11.046875 C 4.8088735 10.792021 4.990133 10.691665 5.2148438 10.689453 z M 10.964844 11.707031 C 11.245966 12.527909 11.148068 13.170055 10.675781 13.636719 C 10.203495 14.103381 9.6061553 14.348602 8.8808594 14.371094 C 8.1555628 14.393584 7.4666582 14.805128 6.8144531 15.603516 C 6.7582281 15.862149 6.9182175 15.809057 7.2949219 15.449219 C 7.6716267 15.089382 8.2134462 14.831021 8.921875 14.667969 C 9.6303045 14.504919 10.105891 14.342975 10.347656 14.185547 C 10.589422 14.028118 10.849672 13.898438 11.132812 13.898438 C 11.371351 13.898438 11.475618 14.085591 11.453125 14.355469 L 11.115234 16.716797 L 10.1875 16.716797 L 10.1875 16.615234 L 10.929688 16.529297 L 11.099609 15.011719 C 11.099609 14.426983 10.818106 14.324704 10.255859 14.707031 C 8.8952269 15.629112 7.8437261 16.266641 7.1015625 16.615234 C 6.6067866 16.671456 6.2507625 16.596932 6.0371094 16.394531 C 5.8234555 16.192122 5.8190757 15.861431 6.0214844 15.400391 C 6.5837297 14.512042 7.3515341 13.686764 8.3242188 12.927734 C 9.2969035 12.168702 10.1777 11.763254 10.964844 11.707031 z M 5.9882812 12.246094 L 7.21875 13.476562 C 6.712729 13.92636 6.2734252 14.414848 5.9023438 14.943359 C 5.6673947 15.291993 5.531823 15.580605 5.4960938 15.806641 C 5.496709 15.133208 5.5660474 14.537286 5.7011719 14.017578 C 5.8473556 13.455333 5.9433016 12.864565 5.9882812 12.246094 z M 10.744141 14.742188 L 10.626953 16.3125 C 10.177158 16.3125 9.9511719 16.389455 9.9511719 16.546875 L 9.9511719 16.96875 L 7.2265625 16.96875 C 8.0780231 16.61335 9.2497739 15.871267 10.744141 14.742188 z M 5.5996094 16.332031 C 5.7441142 16.621343 6.0226445 16.827132 6.2792969 16.96875 L 5.4648438 16.96875 C 5.614725 16.852176 5.659367 16.639746 5.5996094 16.332031 z " />
</svg>
